X: 42190
T: Watkin's Ale
R: three-two
M: 3/2
K: Fmajor
M:6/4
|:f4 e2 f4 c2|d4 c2 d4 A2|B4 A2 B4 F2|A4 G2 F6:|
|:F2A2F2 A3Bc2|G2B2G2 B3cd2|B2d2B2 d3ef2|g4 f2 e2c2c2:|
|:c2f2f2 e6|A2d2d2 c6|F2B2B2 A3GF2|F2E2E2 F6:|

